content/culture/Webby.svg

<svg xmlns="http://www.w3.org/2000/svg" width="45" height="26" viewBox="0 0 45 26" fill="none">
  <path d="M0 14V16C15.3593 15.0937 3.93349 14.5937 0 14Z" fill="black"/>
  <path d="M0 17.2812V19.25L0.124873 19.2812C11.8317 18.1875 8.46012 17.8125 0 17.2812Z" fill="black"/>
  <path d="M0 0V6.4375C9.64641 6.125 9.67763 5.5625 4.68272 4.90625L5.58805 3.8125C11.7692 4.75 11.3634 6.3125 6.93043 7.09375C8.4289 7.625 13.6736 8.59375 7.30505 10.5C8.33525 10.7812 14.173 12.2188 6.93043 13.5312C8.0855 14.0625 14.173 14.8125 7.18018 16.6875C8.99083 17 13.6423 17.9688 7.49236 19.9688C9.8025 20.2188 10.0835 20.2812 10.7078 21.375V25.5625H13.5487V0H0Z" fill="black"/>
  <path d="M0 11V13C2.87207 12.4063 16.0773 12.1875 0 11Z" fill="black"/>
  <path d="M0 7.59375V9.71875C9.02205 9.21875 12.0814 8.59375 0 7.59375Z" fill="black"/>
  <path d="M16.8578 6.78125H15.3281V6.5H18.7309V6.78125H17.2012V10.9062H16.8578V6.78125Z" fill="black"/>
  <path d="M19.5723 6.5H19.8844V8.53125H22.7253V6.5H23.0687V10.9062H22.7253V8.84375H19.8844V10.9062H19.5723V6.5Z" fill="black"/>
  <path d="M24.1953 6.5H27.3483V6.78125H24.5387V8.53125H27.0674V8.84375H24.5387V10.625H27.3796V10.9062H24.1953V6.5Z" fill="black"/>
  <path d="M15.5469 13.4688H17.0141L17.8882 16.375L18.856 13.4688H20.0423L21.0101 16.375L21.8842 13.4688H23.3202L21.6656 18.5312H20.4481L19.4491 15.625L18.4502 18.5312H17.2327L15.5469 13.4688Z" fill="black"/>
  <path d="M23.3203 15.9375C23.3203 14.4063 24.4129 13.2188 25.9114 13.2188C27.6909 13.2188 28.5025 14.5312 28.5025 16.0312C28.5025 16.1562 28.5025 16.2813 28.5025 16.4063H25.0685C25.2246 16.9688 25.6305 17.25 26.1924 17.25C26.6294 17.25 26.9728 17.0938 27.3475 16.7188L28.3464 17.5625C27.8469 18.1875 27.1289 18.625 26.1299 18.625C24.4754 18.625 23.3203 17.5312 23.3203 15.9375ZM26.848 15.5C26.7855 14.9375 26.4421 14.5625 25.9426 14.5625C25.4744 14.5625 25.131 14.9375 25.0373 15.5H26.848Z" fill="black"/>
  <path d="M29.5312 13.4688H32.0911C32.7155 13.4688 33.1525 13.625 33.4647 13.9063C33.652 14.125 33.7769 14.375 33.7769 14.7188C33.7769 15.3125 33.4335 15.6562 32.9964 15.8437C33.6208 16.0312 33.9954 16.375 33.9954 17.0625C33.9954 17.9375 33.3086 18.4375 32.0911 18.4375H29.5V13.4688H29.5312ZM32.4033 15.0313C32.4033 14.75 32.1848 14.5937 31.7789 14.5937H30.8736V15.4688H31.7477C32.1535 15.4688 32.4033 15.3125 32.4033 15.0313ZM31.935 16.4375H30.8736V17.375H31.935C32.3721 17.375 32.5906 17.2188 32.5906 16.9063C32.6218 16.625 32.4033 16.4375 31.935 16.4375Z" fill="black"/>
  <path d="M35.0898 13.4688H37.6497C38.2741 13.4688 38.7111 13.625 39.0233 13.9063C39.2106 14.125 39.3355 14.375 39.3355 14.7188C39.3355 15.3125 38.9921 15.6562 38.555 15.8437C39.1794 16.0312 39.554 16.375 39.554 17.0625C39.554 17.9375 38.8672 18.4375 37.6497 18.4375H35.0586V13.4688H35.0898ZM37.9619 15.0313C37.9619 14.75 37.7434 14.5937 37.3375 14.5937H36.4322V15.4688H37.3063C37.7121 15.4688 37.9619 15.3125 37.9619 15.0313ZM37.4936 16.4375H36.4322V17.375H37.4936C37.9307 17.375 38.1492 17.2188 38.1492 16.9063C38.1804 16.625 37.9619 16.4375 37.4936 16.4375Z" fill="black"/>
  <path d="M41.4573 16.5938L39.553 13.4688H41.1451L42.1753 15.2812L43.2055 13.4688H44.7664L42.8621 16.5938V18.5H41.4573V16.5938Z" fill="black"/>
  <path d="M17.826 20.625H18.1382L20.1986 25.0937H19.824L19.262 23.8437H16.6397L16.0778 25.0937H15.7344L17.826 20.625ZM19.1372 23.5625L17.9821 21L16.827 23.5625H19.1372Z" fill="black"/>
  <path d="M20.168 20.6562H20.5426L21.9162 24.5937L23.2273 20.6562H23.4771L24.757 24.5937L26.1619 20.6562H26.5053L24.8819 25.125H24.6322L23.321 21.2812L22.0411 25.125H21.7601L20.168 20.6562Z" fill="black"/>
  <path d="M28.658 20.625H28.9702L31.0306 25.0937H30.656L30.0941 23.8437H27.4717L26.9098 25.0937H26.5664L28.658 20.625ZM29.9692 23.5625L28.8141 21L27.659 23.5625H29.9692Z" fill="black"/>
  <path d="M31.7812 20.6562H33.6543C34.185 20.6562 34.6221 20.8125 34.9031 21.0938C35.1216 21.3125 35.2465 21.5938 35.2465 21.9062C35.2465 22.6562 34.6845 23.0625 33.9353 23.1875L35.4026 25.0937H34.9967L33.5919 23.25H32.1559V25.0937H31.8125V20.6562H31.7812ZM33.5919 22.9688C34.3411 22.9688 34.8718 22.5937 34.8718 21.9687C34.8718 21.375 34.4036 21 33.5919 21H32.0934V23H33.5919V22.9688Z" fill="black"/>
  <path d="M36.2131 20.6562H37.6804C39.0852 20.6562 40.0217 21.625 40.0217 22.8437C40.0217 24.0937 39.054 25.0625 37.6804 25.0625H36.2131V20.6562ZM36.5253 20.9687V24.7812H37.6804C38.8979 24.7812 39.6783 23.9375 39.6783 22.875C39.6783 21.8125 38.8979 20.9687 37.6804 20.9687H36.5253Z" fill="black"/>
  <path d="M40.6133 24.4375L40.8318 24.1875C41.3313 24.625 41.7684 24.8438 42.4239 24.8438C43.0795 24.8438 43.5478 24.4687 43.5478 23.9687C43.5478 23.5 43.298 23.2187 42.2991 23.0312C41.2376 22.8125 40.8006 22.4687 40.8006 21.7812C40.8006 21.125 41.3937 20.625 42.2366 20.625C42.8922 20.625 43.298 20.8125 43.7663 21.1562L43.5478 21.4062C43.142 21.0312 42.7049 20.9063 42.2366 20.9063C41.581 20.9063 41.144 21.2812 41.144 21.75C41.144 22.2187 41.3937 22.5 42.4239 22.7187C43.4541 22.9375 43.8912 23.2812 43.8912 23.9375C43.8912 24.6562 43.2668 25.1562 42.4239 25.1562C41.7059 25.1562 41.144 24.9375 40.6133 24.4375Z" fill="black"/>
</svg>

<?xml version="1.0" encoding="utf-8"?>
<!-- Generator: Adobe Illustrator 27.7.0, SVG Export Plug-In . SVG Version: 6.00 Build 0)  -->
<svg version="1.1" id="Layer_1" xmlns="http://www.w3.org/2000/svg" xmlns:xlink="http://www.w3.org/1999/xlink" x="0px" y="0px"
	 viewBox="0 0 45 26" style="enable-background:new 0 0 45 26;" xml:space="preserve">
<style type="text/css">
	.st0{fill:#FF3C00;}
</style>
<path class="st0" d="M0,14v2C15.4,15.1,3.9,14.6,0,14z"/>
<path class="st0" d="M0,17.3v2l0.1,0C11.8,18.2,8.5,17.8,0,17.3z"/>
<path class="st0" d="M0,0v6.4c9.6-0.3,9.7-0.9,4.7-1.5l0.9-1.1c6.2,0.9,5.8,2.5,1.3,3.3c1.5,0.5,6.7,1.5,0.4,3.4
	c1,0.3,6.9,1.7-0.4,3c1.2,0.5,7.2,1.3,0.2,3.2C9,17,13.6,18,7.5,20c2.3,0.2,2.6,0.3,3.2,1.4v4.2h2.8V0H0z"/>
<path class="st0" d="M0,11v2C2.9,12.4,16.1,12.2,0,11z"/>
<path class="st0" d="M0,7.6v2.1C9,9.2,12.1,8.6,0,7.6z"/>
<path class="st0" d="M16.9,6.8h-1.5V6.5h3.4v0.3h-1.5v4.1h-0.3V6.8z"/>
<path class="st0" d="M19.6,6.5h0.3v2h2.8v-2h0.3v4.4h-0.3V8.8h-2.8v2.1h-0.3V6.5z"/>
<path class="st0" d="M24.2,6.5h3.2v0.3h-2.8v1.8h2.5v0.3h-2.5v1.8h2.8v0.3h-3.2V6.5z"/>
<path class="st0" d="M15.5,13.5H17l0.9,2.9l1-2.9H20l1,2.9l0.9-2.9h1.4l-1.7,5.1h-1.2l-1-2.9l-1,2.9h-1.2L15.5,13.5z"/>
<path class="st0" d="M23.3,15.9c0-1.5,1.1-2.7,2.6-2.7c1.8,0,2.6,1.3,2.6,2.8c0,0.1,0,0.3,0,0.4h-3.4c0.2,0.6,0.6,0.8,1.1,0.8
	c0.4,0,0.8-0.2,1.2-0.5l1,0.8c-0.5,0.6-1.2,1.1-2.2,1.1C24.5,18.6,23.3,17.5,23.3,15.9z M26.8,15.5c-0.1-0.6-0.4-0.9-0.9-0.9
	c-0.5,0-0.8,0.4-0.9,0.9H26.8z"/>
<path class="st0" d="M29.5,13.5h2.6c0.6,0,1.1,0.2,1.4,0.4c0.2,0.2,0.3,0.5,0.3,0.8c0,0.6-0.3,0.9-0.8,1.1c0.6,0.2,1,0.5,1,1.2
	c0,0.9-0.7,1.4-1.9,1.4h-2.6L29.5,13.5L29.5,13.5z M32.4,15c0-0.3-0.2-0.4-0.6-0.4h-0.9v0.9h0.9C32.2,15.5,32.4,15.3,32.4,15z
	 M31.9,16.4h-1.1v0.9h1.1c0.4,0,0.7-0.2,0.7-0.5C32.6,16.6,32.4,16.4,31.9,16.4z"/>
<path class="st0" d="M35.1,13.5h2.6c0.6,0,1.1,0.2,1.4,0.4c0.2,0.2,0.3,0.5,0.3,0.8c0,0.6-0.3,0.9-0.8,1.1c0.6,0.2,1,0.5,1,1.2
	c0,0.9-0.7,1.4-1.9,1.4h-2.6L35.1,13.5L35.1,13.5z M38,15c0-0.3-0.2-0.4-0.6-0.4h-0.9v0.9h0.9C37.7,15.5,38,15.3,38,15z M37.5,16.4
	h-1.1v0.9h1.1c0.4,0,0.7-0.2,0.7-0.5C38.2,16.6,38,16.4,37.5,16.4z"/>
<path class="st0" d="M41.5,16.6l-1.9-3.1h1.6l1,1.8l1-1.8h1.6l-1.9,3.1v1.9h-1.4V16.6z"/>
<path class="st0" d="M17.8,20.6h0.3l2.1,4.5h-0.4l-0.6-1.2h-2.6l-0.6,1.2h-0.3L17.8,20.6z M19.1,23.6L18,21l-1.2,2.6H19.1z"/>
<path class="st0" d="M20.2,20.7h0.4l1.4,3.9l1.3-3.9h0.2l1.3,3.9l1.4-3.9h0.3l-1.6,4.5h-0.2l-1.3-3.8L22,25.1h-0.3L20.2,20.7z"/>
<path class="st0" d="M28.7,20.6H29l2.1,4.5h-0.4l-0.6-1.2h-2.6l-0.6,1.2h-0.3L28.7,20.6z M30,23.6L28.8,21l-1.2,2.6H30z"/>
<path class="st0" d="M31.8,20.7h1.9c0.5,0,1,0.2,1.2,0.4c0.2,0.2,0.3,0.5,0.3,0.8c0,0.8-0.6,1.2-1.3,1.3l1.5,1.9H35l-1.4-1.8h-1.4
	v1.8h-0.3L31.8,20.7L31.8,20.7z M33.6,23c0.7,0,1.3-0.4,1.3-1c0-0.6-0.5-1-1.3-1h-1.5v2L33.6,23L33.6,23z"/>
<path class="st0" d="M36.2,20.7h1.5c1.4,0,2.3,1,2.3,2.2c0,1.2-1,2.2-2.3,2.2h-1.5V20.7z M36.5,21v3.8h1.2c1.2,0,2-0.8,2-1.9
	s-0.8-1.9-2-1.9H36.5z"/>
<path class="st0" d="M40.6,24.4l0.2-0.2c0.5,0.4,0.9,0.7,1.6,0.7c0.7,0,1.1-0.4,1.1-0.9c0-0.5-0.2-0.8-1.2-0.9
	c-1.1-0.2-1.5-0.6-1.5-1.2c0-0.7,0.6-1.2,1.4-1.2c0.7,0,1.1,0.2,1.5,0.5l-0.2,0.2c-0.4-0.4-0.8-0.5-1.3-0.5c-0.7,0-1.1,0.4-1.1,0.8
	c0,0.5,0.2,0.8,1.3,1c1,0.2,1.5,0.6,1.5,1.2c0,0.7-0.6,1.2-1.5,1.2C41.7,25.2,41.1,24.9,40.6,24.4z"/>
</svg>
